svg/Pictogram/pictograms-nps-services-library.svg

<svg xmlns="http://www.w3.org/2000/svg" width="123.55" height="123.54" viewBox="-0.258 -0.548 123.547 123.539" enable-background="new -0.258 -0.548 123.547 123.539"><path d="m108.96 123.19c8.156 0 14.773-6.594 14.773-14.742v-94.02c0-8.156-6.617-14.766-14.773-14.766h-94.02c-8.148 0-14.765 6.609-14.765 14.766v94.02c0 8.148 6.617 14.742 14.766 14.742h94.02z"/><path d="m14.945 2.168c-6.758 0-12.266 5.5-12.266 12.266v94.02c0 6.758 5.508 12.258 12.266 12.258h94.02c6.766 0 12.281-5.5 12.281-12.258v-94.02c0-6.766-5.516-12.266-12.281-12.266h-94.02" fill="#fff"/><path d="m62.18 41.03c7.5 0 13.555-6.094 13.555-13.586 0-7.5-6.05-13.562-13.555-13.562s-13.562 6.06-13.562 13.562c-.0001 7.492 6.06 13.586 13.562 13.586"/><path d="m75.37 44.34c6.203.219 8.812 5.188 8.812 5.188l20.02 27.477c.828 1.219 1.312 2.711 1.312 4.32 0 4.273-3.461 7.742-7.734 7.742-1.023 0-1.953-.227-2.836-.562l-12.09-3.375v12.06h-41.96v-12.06l-12.09 3.375c-.852.336-1.812.562-2.844.562-4.273 0-7.727-3.469-7.727-7.742 0-1.609.477-3.102 1.344-4.32l20.01-27.477c0 0 2.625-4.969 8.805-5.188h26.969zm-13.484 44.43l15.656-5.203-.344-.07c-10.812-3.172-6.609-17.453 4.18-14.266l1.484.516v-16.12l-20.976 6.851-20.984-6.852v16.12l1.477-.516c10.805-3.188 15.02 11.09 4.203 14.266l-.352.07 15.656 5.205"/><path d="m104.98 106.69c1.07 0 1.93-.859 1.93-1.93 0-1.078-.859-1.93-1.93-1.93h-84.68c-1.047 0-1.93.852-1.93 1.93 0 1.07.883 1.93 1.93 1.93h84.68"/></svg>

<?xml version="1.0" encoding="iso-8859-1"?>
<!-- Generator: Adobe Illustrator 13.0.2, SVG Export Plug-In . SVG Version: 6.00 Build 14948)  -->
<!DOCTYPE svg PUBLIC "-//W3C//DTD SVG 1.1//EN" "http://www.w3.org/Graphics/SVG/1.1/DTD/svg11.dtd">
<svg version="1.1" id="Layer_1" xmlns="http://www.w3.org/2000/svg" xmlns:xlink="http://www.w3.org/1999/xlink" x="0px" y="0px"
	 width="123.547px" height="123.539px" viewBox="-0.258 -0.548 123.547 123.539"
	 style="enable-background:new -0.258 -0.548 123.547 123.539;" xml:space="preserve">
<g>
	<path d="M108.961,123.191c8.156,0,14.773-6.594,14.773-14.742V14.434c0-8.156-6.617-14.766-14.773-14.766H14.945
		C6.797-0.332,0.18,6.277,0.18,14.434v94.016c0,8.148,6.617,14.742,14.766,14.742H108.961z"/>
	<path style="fill:#FFFFFF;" d="M14.945,2.168c-6.758,0-12.266,5.5-12.266,12.266v94.016c0,6.758,5.508,12.258,12.266,12.258h94.016
		c6.766,0,12.281-5.5,12.281-12.258V14.434c0-6.766-5.516-12.266-12.281-12.266H14.945z"/>
	<path d="M62.18,41.035c7.5,0,13.555-6.094,13.555-13.586c0-7.5-6.055-13.562-13.555-13.562s-13.562,6.062-13.562,13.562
		C48.617,34.941,54.68,41.035,62.18,41.035z"/>
	<path d="M75.367,44.34c6.203,0.219,8.812,5.188,8.812,5.188l20.023,27.477c0.828,1.219,1.312,2.711,1.312,4.32
		c0,4.273-3.461,7.742-7.734,7.742c-1.023,0-1.953-0.227-2.836-0.562l-12.086-3.375v12.062H40.898V85.129l-12.086,3.375
		c-0.852,0.336-1.812,0.562-2.844,0.562c-4.273,0-7.727-3.469-7.727-7.742c0-1.609,0.477-3.102,1.344-4.32l20.008-27.477
		c0,0,2.625-4.969,8.805-5.188H75.367z M61.883,88.77L61.883,88.77l15.656-5.203l-0.344-0.07
		c-10.812-3.172-6.609-17.453,4.18-14.266l1.484,0.516V53.629L61.883,60.48l-20.984-6.852v16.117l1.477-0.516
		c10.805-3.188,15.016,11.094,4.203,14.266l-0.352,0.07L61.883,88.77L61.883,88.77z"/>
	<path d="M104.984,106.691c1.07,0,1.93-0.859,1.93-1.93l0,0c0-1.078-0.859-1.93-1.93-1.93h-84.68c-1.047,0-1.93,0.852-1.93,1.93l0,0
		c0,1.07,0.883,1.93,1.93,1.93H104.984z"/>
</g>
</svg>
